!! 00000] TT[WS
!!!OTL: Buxiang nijia zunzun danxiang ren
!!!ARE: Asia, China, Shanxi Hequ
!! Ethnic Group: Han
!! WII, 30 (1)
!!!SCT: J0439
!!!YEM: Copyright 1995, estate of Helmut Schaffrath.
**kern
*ICvox
*Ivox
*M2/4
*k[f#c#]
*D:
{8b
8ee
8ee
16dd
16b
=1
8a
8e
8d
8B
=2
4.a
16f#
16f#
=3
8a
16f#
16e
8e
16d
16B
=4
2b}
=5
{8b
8ee
8ee
16dd
16b
=6
8a
8e
8d
8B
=7
4.a
16f#
16f#
=8
8a
16f#
16e
8e
16d
16B
=9
2e}
==
!!!AGN: Shange, Shanqu. Qingge
!!!ONB: ESAC (Essen Associative Code) Database: CHINA
!!!AMT: simple duple
!!!AIN: vox
!!!EED: Helmut Schaffrath
!!!EEV: 1.0
*-
